X: 1
T:Cerdetshni
S:Forgotten
O:Russia
Z:Nigel Gatherer
M:2/4
L:1/8
K:Dm
f/e/f/d/ ^cA|df ea|g/f/e/d/ ^cA|df e2|f/e/f/d/ ^cA|df ea|
g/f/e/d/ ^cA|df/e/ d2||A{^g}a A{^g}a|A{^g}a =g/f/e/d/|A{^g}a A{^g}a|
A{^g}a d2|A{^g}a A{^g}a|A{^g}a =g/f/e/d/|A{^g}a A{^g}a|=ge d2|]
